Adwaita++/status/16/arch-uptodate.svg

<svg height="16" width="16" xmlns="http://www.w3.org/2000/svg">
  <path d="m8 1c-1.825 1.725-5 3-6 3.25 0 4.75 2.25 10 6 10.75 3.75-.75 6-6 6-10.75-1-.25-4.175-1.525-6-3.25zm3 5 1 1-4 4-3-3 1-1 2 2z" fill="#474747"/>
</svg>

<svg xmlns="http://www.w3.org/2000/svg" width="16" height="16" version="1.1">
 <path style="fill:#474747" d="M 8 1 C 6.175 2.725 3 4 2 4.25 C 2 9 4.25 14.25 8 15 C 11.75 14.25 14 9 14 4.25 C 13 4 9.825 2.725 8 1 z M 11 6 L 12 7 L 8 11 L 5 8 L 6 7 L 8 9 L 11 6 z"/>
</svg>
